icon-themes/sifr_svg/cmd/sc_incrementlevel.svg

<svg viewBox="0 0 16 16" xmlns="http://www.w3.org/2000/svg"><path d="m1 0v2h14v-2zm0 4v2h7v-2zm12 1c-.30945 0-.55232.0903-.75.28125-1.016078.769594-1.524849 1.3210991-2.25 1.9394531v1.6152344l2.25 1.8828125c.19768.19095.44055.28125.75.28125h.587891.412109v-1c0-.256892-.12983-.528462-.3125-.71875l-.371094-.28125-1.316406-1 1.316406-1 .371094-.28125c.18267-.190301.3125-.494728.3125-.71875v-1h-.412109zm-12 5v2h7v-2zm0 4v2h14v-2z" fill="#555753"/></svg>

<svg xmlns="http://www.w3.org/2000/svg" viewBox="0 0 16 16">
  <path
     style="fill:#555753"
     d="M 1 0 L 1 2 L 15 2 L 15 0 L 1 0 z M 1 4 L 1 6 L 8 6 L 8 4 L 1 4 z M 13 5 C 12.69055 5 12.44768 5.0903 12.25 5.28125 C 11.233922 6.050844 10.725151 6.6023491 10 7.2207031 L 10 8.8359375 L 12.25 10.71875 C 12.44768 10.9097 12.69055 11 13 11 L 13.587891 11 L 14 11 L 14 10 C 14 9.743108 13.87017 9.471538 13.6875 9.28125 L 13.316406 9 L 12 8 L 13.316406 7 L 13.6875 6.71875 C 13.87017 6.528449 14 6.224022 14 6 L 14 5 L 13.587891 5 L 13 5 z M 1 10 L 1 12 L 8 12 L 8 10 L 1 10 z M 1 14 L 1 16 L 15 16 L 15 14 L 1 14 z "
     />
</svg>
